X: 20521
T: John MacKenzie's Fancy
R: hornpipe
M: 4/4
K: Emixolydian
|:EBBE BBEB|BABc dcBd|DAAE F2DA|AEFAB2AF|
EBBE BBEB|BABc dcBd|DddB edBA|1 B2E2E2B2:|2 B2E2E2d2||
BcdB edBA|BcdB e2 dB|DAAE F2DA|AEFAB2Ad|
BcdB edBA|BcdB e2 dB|DddB edBA|B2E2E3A|
BcdB edBA|BcdB e2 dB|DAAE F2DA|AEFAB2A2|
EBBE BBEB|BABc dcBd|DddB edBA|B2E2E2B2||

